X: 40590
T: Tomorrow Morning
R: hornpipe
M: 4/4
K: Dmajor
(3gfe|dAFA defd|ecAc efge|fafd Bded|cdBc A2 (3ABc|
dAFA defd|ecAc efge|fafd Acec|d2dc d2:|
fg|afdf a2gf|gece g2ag|fafd Bded|ceBe A2 (3gfe|
dAFA defd|ecAc efge|fafd Acec|d2dc d2:|

